X:69
T:Persistence of Noel Reid, The
C:Ed Yother
C:c.2005
C:http://edyother.com
M:6/8
R:jig
K:G
DFA DFA | cBc G2A | cBc GBc | d3 dcA |
DFA DFA | cBc GBc | dcd Acd | age cBA :|
|: a3 age | ged e2f | gfg def | gfg age |
a3 age | ged e2f | gfg dfg | age cBA :|

%%newpage
%%scale .65
%%staffsep 35

